packages/foundations/assets/icons/functional/images/transportation/bike_trailer_24.svg

<svg width="24" height="24" viewBox="0 0 24 24" fill="none" xmlns="http://www.w3.org/2000/svg">
<g clip-path="url(#clip0_187_842)">
<path fill-rule="evenodd" clip-rule="evenodd" d="M7.50001 13.4671C8.88072 13.4671 10 14.5864 10 15.9671C10 17.3478 8.88072 18.4671 7.50001 18.4671C6.1193 18.4671 5.00001 17.3478 5.00001 15.9671C5.00001 14.5864 6.1193 13.4671 7.50001 13.4671ZM2.33685 8.71008C2.88119 6.54679 5.04198 5.1825 7.24566 5.61177C7.51606 5.66326 8.21548 5.8997 9.34393 6.32109C11.2864 7.0775 13.0744 8.18526 14.618 9.59022C15.4397 10.3381 16.1579 11.085 16.7722 11.8317C16.9779 12.0818 17.0499 12.4159 16.9652 12.7284C16.8494 13.1562 16.6156 13.7037 16.261 14.3844L15.3575 15.9815C15.1994 16.2451 14.9304 16.4192 14.6303 16.4586L12 16.4604C11.4903 16.4671 11.0296 16.0362 11.0296 15.4671C11.0296 14.8979 11.4903 14.4738 12 14.4738L13.93 14.4661L14.864 12.6761C14.1372 11.9095 13.6065 11.3739 13.2718 11.0693C11.9179 9.83695 10.3507 8.86376 8.64859 8.19664C7.82076 7.8473 7.1704 7.63089 6.6975 7.54741C5.60836 7.4084 4.57873 8.09481 4.28815 9.15365C4.09605 9.89915 4 10.3706 4 10.5681C4 10.8643 4 13.7301 4 13.7301C4.47313 13.8904 4.75125 14.4659 4.6014 14.9564C4.44003 15.4845 3.8873 15.7705 3.35285 15.6205C2.50885 15.3836 2 14.6734 2 13.7301C2 12.6339 2 11.5463 2 10.4671C2 10.2486 2.11228 9.66293 2.33685 8.71008ZM21 13.4671C21.5523 13.4671 22 13.9148 22 14.4671C22 14.9799 21.5812 15.4671 21 15.4671C20.8132 15.4671 20.6361 15.5123 20.4686 15.6028L19.5594 16.0997C19.112 16.3351 18.6373 16.4671 18 16.4671C17.4477 16.4671 17 16.0194 17 15.4671C17 14.9542 17.3929 14.4671 18 14.4671C18.2557 14.4671 18.4558 14.4263 18.6003 14.3446L19.5096 13.8477C19.9667 13.598 20.4792 13.4671 21 13.4671ZM7.50001 15.4671C7.22387 15.4671 7.00001 15.6909 7.00001 15.9671C7.00001 16.2432 7.22387 16.4671 7.50001 16.4671C7.77615 16.4671 8.00001 16.2432 8.00001 15.9671C8.00001 15.6909 7.77615 15.4671 7.50001 15.4671ZM6.70772 8.67248C6.83769 8.67248 7.00953 8.70813 7.22324 8.77944L10.0069 9.90159C10.3368 10.055 10.6489 10.244 10.9378 10.4651L12.4906 11.7949C12.8251 12.1625 12.8413 12.7301 12.5098 13.1174C12.1782 13.5047 11.6148 13.5762 11.2001 13.3024L9.69593 12.0334C9.53869 11.9157 9.37027 11.8138 9.19311 11.729L7.0821 10.8771L6.97124 11.706C6.85223 12.1923 6.38494 12.523 5.87606 12.4594C5.36719 12.3958 4.99566 11.9603 4.99996 11.4596L5.20218 9.8435C5.35825 9.14435 5.96723 8.67248 6.70772 8.67248Z" fill="#1A1C1F"/>
</g>
<defs>
<clipPath id="clip0_187_842">
<rect width="24" height="24" fill="white"/>
</clipPath>
</defs>
</svg>

<svg xmlns="http://www.w3.org/2000/svg" width="24" height="24" fill="none"><g clip-path="url(#a)"><path fill="#1A1C1F" fill-rule="evenodd" d="M7.5 13.467a2.5 2.5 0 1 1 0 5 2.5 2.5 0 0 1 0-5M2.337 8.71c.544-2.163 2.705-3.528 4.909-3.098q.406.077 2.098.71a17 17 0 0 1 5.274 3.268q1.233 1.122 2.154 2.242a1 1 0 0 1 .193.896c-.116.428-.35.976-.704 1.656l-.903 1.598a1 1 0 0 1-.728.477L12 16.46c-.51.007-.97-.424-.97-.993 0-.57.46-.993.97-.993l1.93-.008.934-1.79q-1.09-1.15-1.592-1.607a15 15 0 0 0-4.623-2.872q-1.242-.524-1.951-.65a2.21 2.21 0 0 0-2.41 1.607Q4 10.272 4 10.568v3.162c.473.16.751.736.601 1.226a1.007 1.007 0 0 1-1.248.665C2.509 15.384 2 14.673 2 13.73v-3.264q0-.327.337-1.757M21 13.467a1 1 0 0 1 1 1c0 .513-.419 1-1 1q-.28 0-.531.136l-.91.497c-.447.235-.922.367-1.559.367a1 1 0 0 1-1-1c0-.513.393-1 1-1q.384 0 .6-.122l.91-.497c.457-.25.97-.38 1.49-.38m-13.5 2a.5.5 0 1 0 0 1 .5.5 0 0 0 0-1m-.792-6.795q.195 0 .515.107l2.784 1.123q.496.23.93.563l1.554 1.33a1 1 0 0 1-1.29 1.507l-1.505-1.269a3 3 0 0 0-.503-.304l-2.11-.852-.112.829A1 1 0 0 1 5 11.46l.202-1.617c.156-.699.765-1.17 1.506-1.17" clip-rule="evenodd"/></g><defs><clipPath id="a"><path fill="#fff" d="M0 0h24v24H0z"/></clipPath></defs></svg>
